picto/tracks-29-fr-small.svg

<svg class="color-immutable" width="24" height="24" viewBox="0 0 24 24" fill="none" xmlns="http://www.w3.org/2000/svg"><path d="M0 22.5V1.5C0 0.675 0.675 0 1.5 0H22.5C23.325 0 24 0.675 24 1.5V22.5C24 23.325 23.325 24 22.5 24H1.5C0.675 24 0 23.325 0 22.5Z" fill="#2D327D"/><path d="M11.276 19.001V21.001H3.17799C3.17799 20.391 3.27699 19.809 3.47399 19.255C3.67099 18.701 3.94899 18.224 4.30799 17.825C4.58499 17.517 4.90899 17.217 5.28099 16.925C5.65299 16.633 6.39199 16.097 7.49999 15.318C8.03799 14.944 8.41499 14.595 8.62999 14.272C8.84499 13.949 8.95299 13.575 8.95299 13.149C8.95299 12.657 8.80799 12.258 8.51799 11.953C8.22799 11.648 7.84799 11.495 7.37599 11.495C6.21699 11.495 5.61999 12.328 5.58399 13.994H3.42399C3.42399 13.886 3.42399 13.804 3.42399 13.748C3.42399 12.384 3.80599 11.328 4.56999 10.58C5.31299 9.852 6.27499 9.488 7.45399 9.488C8.49999 9.488 9.37399 9.785 10.076 10.38C10.84 11.026 11.222 11.895 11.222 12.987C11.222 13.941 10.917 14.761 10.307 15.448C10.107 15.674 9.91999 15.854 9.74599 15.99C9.57199 16.126 9.11299 16.453 8.36899 16.971C7.66099 17.463 7.15499 17.84 6.84999 18.101C6.54499 18.362 6.26199 18.662 5.99999 19.001H11.276Z" fill="white"/><path d="M12.917 18.178H15.04C15.214 19.05 15.719 19.485 16.555 19.485C17.027 19.485 17.41 19.325 17.705 19.004C18 18.684 18.227 18.185 18.386 17.508C18.488 17.077 18.563 16.588 18.609 16.039C18.265 16.521 17.913 16.863 17.552 17.066C17.191 17.269 16.751 17.37 16.233 17.37C15.407 17.37 14.69 17.129 14.08 16.647C13.654 16.309 13.322 15.87 13.084 15.332C12.846 14.794 12.726 14.209 12.726 13.579C12.726 12.313 13.159 11.287 14.026 10.503C14.769 9.826 15.661 9.488 16.702 9.488C17.343 9.488 17.935 9.632 18.478 9.919C19.021 10.206 19.478 10.614 19.847 11.142C20.498 12.08 20.824 13.398 20.824 15.095C20.824 16.664 20.537 18.002 19.963 19.109C19.214 20.55 18.081 21.27 16.564 21.27C15.554 21.27 14.719 20.991 14.061 20.432C13.4 19.872 13.019 19.121 12.917 18.178ZM16.654 11.387C16.172 11.387 15.764 11.584 15.431 11.979C15.098 12.379 14.931 12.887 14.931 13.502C14.931 13.999 15.051 14.44 15.292 14.825C15.62 15.353 16.081 15.617 16.676 15.617C17.214 15.617 17.645 15.402 17.968 14.971C18.27 14.566 18.422 14.084 18.422 13.525C18.422 12.935 18.266 12.436 17.953 12.025C17.626 11.6 17.193 11.387 16.654 11.387Z" fill="white"/><path d="M5.036 3L4.288 5.249H3.73L2.993 3H3.507L4.013 4.684L4.527 3H5.036Z" fill="white"/><path d="M5.87399 3.523C6.11799 3.523 6.31699 3.604 6.47199 3.766C6.62499 3.926 6.70099 4.139 6.70099 4.406C6.70099 4.682 6.61899 4.902 6.45599 5.066C6.30399 5.218 6.10499 5.295 5.85999 5.295C5.59899 5.295 5.38999 5.21 5.23599 5.04C5.08799 4.877 5.01399 4.667 5.01399 4.409C5.01399 4.155 5.08599 3.948 5.22899 3.789C5.38899 3.612 5.60299 3.523 5.87399 3.523ZM5.85099 3.871C5.73299 3.871 5.63899 3.919 5.56999 4.014C5.49899 4.11 5.46299 4.242 5.46299 4.409C5.46299 4.582 5.49799 4.715 5.56799 4.807C5.63999 4.9 5.73799 4.947 5.86199 4.947C5.97799 4.947 6.06999 4.904 6.13699 4.819C6.21399 4.725 6.25199 4.588 6.25199 4.408C6.25199 4.24 6.21799 4.109 6.14999 4.016C6.07999 3.919 5.97999 3.871 5.85099 3.871Z" fill="white"/><path d="M7.44899 3V3.401H7.00299V3H7.44899ZM7.44899 3.572V5.249H7.00299V3.572H7.44899Z" fill="white"/><path d="M9.32099 4.726C9.29699 4.82 9.25499 4.909 9.19299 4.992C9.04499 5.194 8.83299 5.295 8.55599 5.295C8.30599 5.295 8.10499 5.216 7.95499 5.058C7.88099 4.981 7.82499 4.888 7.78599 4.78C7.74399 4.664 7.72299 4.543 7.72299 4.417C7.72299 4.173 7.79299 3.968 7.93399 3.802C8.09099 3.616 8.29399 3.524 8.54299 3.524C8.74399 3.524 8.91499 3.586 9.05699 3.71C9.15899 3.799 9.23199 3.909 9.27799 4.04C9.32399 4.171 9.34699 4.335 9.34699 4.533H8.17699C8.18099 4.615 8.19399 4.683 8.21499 4.738C8.27499 4.885 8.38999 4.958 8.55999 4.958C8.64299 4.958 8.71099 4.94 8.76299 4.903C8.81499 4.867 8.85799 4.808 8.89199 4.727H9.32099V4.726ZM8.89199 4.232C8.88399 4.151 8.86499 4.084 8.83599 4.031C8.80799 3.978 8.76699 3.937 8.71399 3.906C8.66099 3.875 8.60399 3.86 8.54099 3.86C8.44199 3.86 8.35999 3.893 8.29499 3.96C8.22999 4.026 8.19199 4.117 8.17999 4.232H8.89199Z" fill="white"/></svg>

<svg class="color-immutable" width="24" height="24" viewBox="0 0 24 24" fill="none" xmlns="http://www.w3.org/2000/svg"><g clip-path="url(#a)"><path d="M0 22.5v-21C0 .675.675 0 1.5 0h21c.825 0 1.5.675 1.5 1.5v21c0 .825-.675 1.5-1.5 1.5h-21C.675 24 0 23.325 0 22.5Z" fill="#2D327D"/><path d="M11.276 19.001v2H3.178c0-.61.099-1.192.296-1.746a4.228 4.228 0 0 1 .834-1.43c.277-.308.601-.608.973-.9.372-.292 1.111-.828 2.219-1.607.538-.374.915-.723 1.13-1.046.215-.323.323-.697.323-1.123 0-.492-.145-.891-.435-1.196-.29-.305-.67-.458-1.142-.458-1.159 0-1.756.833-1.792 2.499h-2.16v-.246c0-1.364.382-2.42 1.146-3.168.743-.728 1.705-1.092 2.884-1.092 1.046 0 1.92.297 2.622.892.764.646 1.146 1.515 1.146 2.607 0 .954-.305 1.774-.915 2.461a4.33 4.33 0 0 1-.561.542c-.174.136-.633.463-1.377.981-.708.492-1.214.869-1.519 1.13a6.037 6.037 0 0 0-.85.9h5.276ZM12.917 18.178h2.123c.174.872.679 1.307 1.515 1.307.472 0 .855-.16 1.15-.481.295-.32.522-.819.681-1.496.102-.431.177-.92.223-1.469-.344.482-.696.824-1.057 1.027-.361.203-.801.304-1.319.304-.826 0-1.543-.241-2.153-.723a3.401 3.401 0 0 1-.996-1.315 4.287 4.287 0 0 1-.358-1.753c0-1.266.433-2.292 1.3-3.076.743-.677 1.635-1.015 2.676-1.015.641 0 1.233.144 1.776.431.543.287 1 .695 1.369 1.223.651.938.977 2.256.977 3.953 0 1.569-.287 2.907-.861 4.014-.749 1.441-1.882 2.161-3.399 2.161-1.01 0-1.845-.279-2.503-.838-.661-.56-1.042-1.311-1.144-2.254Zm3.737-6.791c-.482 0-.89.197-1.223.592-.333.4-.5.908-.5 1.523 0 .497.12.938.361 1.323.328.528.789.792 1.384.792.538 0 .969-.215 1.292-.646.302-.405.454-.887.454-1.446 0-.59-.156-1.089-.469-1.5a1.559 1.559 0 0 0-1.299-.638ZM5.036 3l-.748 2.249H3.73L2.993 3h.514l.506 1.684L4.527 3h.509ZM5.874 3.523a.79.79 0 0 1 .598.243c.153.16.229.373.229.64 0 .276-.082.496-.245.66a.807.807 0 0 1-.596.229c-.261 0-.47-.085-.624-.255-.148-.163-.222-.373-.222-.631 0-.254.072-.461.215-.62.16-.177.374-.266.645-.266Zm-.023.348a.33.33 0 0 0-.281.143.652.652 0 0 0-.107.395c0 .173.035.306.105.398.072.093.17.14.294.14a.332.332 0 0 0 .275-.128c.077-.094.115-.231.115-.411 0-.168-.034-.299-.102-.392a.347.347 0 0 0-.299-.145ZM7.449 3v.401h-.446V3h.446Zm0 .572v1.677h-.446V3.572h.446ZM9.321 4.726a.752.752 0 0 1-.128.266c-.148.202-.36.303-.637.303-.25 0-.451-.079-.601-.237a.775.775 0 0 1-.169-.278 1.058 1.058 0 0 1-.063-.363c0-.244.07-.449.211-.615a.76.76 0 0 1 .609-.278.754.754 0 0 1 .735.516c.046.131.069.295.069.493h-1.17c.004.082.017.15.038.205.06.147.175.22.345.22a.343.343 0 0 0 .203-.055.39.39 0 0 0 .129-.176h.429v-.001Zm-.429-.494a.525.525 0 0 0-.056-.201.334.334 0 0 0-.295-.171.328.328 0 0 0-.246.1.44.44 0 0 0-.115.272h.712Z" fill="#fff"/></g><defs><clipPath id="a"><path fill="#fff" d="M0 0h24v24H0z"/></clipPath></defs></svg>
